flaticon/sport/medal.svg

<svg xmlns="http://www.w3.org/2000/svg" width="32" height="32" viewBox="0 0 24 24">
    <path d="M 15.160156 7.863281 L 19.878906 0 L 14.859375 0 L 12.039062 4.699219 L 9.21875 0 L 4.203125 0 L 8.90625 7.839844 C 5.816406 9.074219 3.621094 12.09375 3.621094 15.621094 C 3.621094 20.242188 7.378906 24 12 24 C 16.621094 24 20.378906 20.242188 20.378906 15.621094 C 20.378906 12.117188 18.21875 9.113281 15.160156 7.863281 Z M 15.320312 0.8125 L 18.441406 0.8125 L 14.375 7.589844 C 14.066406 7.496094 13.75 7.425781 13.425781 7.371094 C 13.292969 7.347656 13.15625 7.328125 13.023438 7.308594 C 12.925781 7.296875 12.832031 7.285156 12.738281 7.277344 C 12.492188 7.253906 12.246094 7.242188 12 7.242188 C 11.820312 7.242188 11.640625 7.246094 11.453125 7.261719 Z M 5.640625 0.8125 L 8.757812 0.8125 L 11.566406 5.492188 L 10.425781 7.394531 C 10.195312 7.4375 9.96875 7.496094 9.746094 7.558594 C 9.730469 7.5625 9.710938 7.566406 9.695312 7.570312 Z M 12 23.1875 C 7.828125 23.1875 4.433594 19.792969 4.433594 15.621094 C 4.433594 12.277344 6.613281 9.441406 9.625 8.441406 L 9.636719 8.4375 C 9.789062 8.386719 9.949219 8.34375 10.109375 8.304688 C 10.140625 8.292969 10.171875 8.285156 10.203125 8.277344 C 10.378906 8.238281 10.558594 8.199219 10.742188 8.167969 C 10.960938 8.132812 11.167969 8.105469 11.367188 8.085938 C 11.574219 8.070312 11.785156 8.054688 12 8.054688 C 12.230469 8.054688 12.457031 8.070312 12.683594 8.089844 C 12.792969 8.097656 12.90625 8.117188 13.019531 8.132812 C 13.117188 8.144531 13.21875 8.160156 13.316406 8.175781 C 13.46875 8.203125 13.617188 8.234375 13.765625 8.269531 C 13.8125 8.28125 13.855469 8.292969 13.898438 8.304688 C 14.078125 8.351562 14.25 8.402344 14.425781 8.460938 L 14.449219 8.46875 C 17.421875 9.488281 19.566406 12.304688 19.566406 15.621094 C 19.566406 19.792969 16.171875 23.1875 12 23.1875 Z M 12 23.1875"/>
    <path d="M 12 9.0625 C 8.382812 9.0625 5.441406 12.003906 5.441406 15.621094 C 5.441406 19.234375 8.382812 22.175781 12 22.175781 C 15.617188 22.175781 18.558594 19.234375 18.558594 15.621094 C 18.558594 12.003906 15.617188 9.0625 12 9.0625 Z M 12 21.363281 C 8.832031 21.363281 6.257812 18.789062 6.257812 15.621094 C 6.257812 12.453125 8.832031 9.878906 12 9.878906 C 15.167969 9.878906 17.742188 12.453125 17.742188 15.621094 C 17.742188 18.789062 15.167969 21.363281 12 21.363281 Z M 12 21.363281"/>
    <path d="M 16.691406 14.113281 C 16.644531 13.964844 16.515625 13.855469 16.363281 13.835938 L 13.597656 13.433594 L 12.363281 10.925781 C 12.222656 10.648438 11.769531 10.648438 11.632812 10.925781 L 10.394531 13.433594 L 7.628906 13.835938 C 7.476562 13.855469 7.351562 13.964844 7.300781 14.113281 C 7.253906 14.257812 7.292969 14.421875 7.40625 14.527344 L 9.40625 16.480469 L 8.933594 19.234375 C 8.90625 19.386719 8.96875 19.539062 9.09375 19.628906 C 9.21875 19.722656 9.386719 19.734375 9.523438 19.660156 L 11.996094 18.363281 L 14.46875 19.660156 C 14.53125 19.691406 14.59375 19.707031 14.660156 19.707031 C 14.742188 19.707031 14.828125 19.683594 14.898438 19.628906 C 15.023438 19.539062 15.085938 19.386719 15.0625 19.234375 L 14.589844 16.480469 L 16.589844 14.527344 C 16.699219 14.421875 16.738281 14.257812 16.691406 14.113281 Z M 13.867188 16.046875 C 13.769531 16.140625 13.726562 16.273438 13.75 16.40625 L 14.117188 18.558594 L 12.183594 17.542969 C 12.125 17.511719 12.0625 17.496094 11.996094 17.496094 C 11.933594 17.496094 11.867188 17.511719 11.808594 17.542969 L 9.875 18.558594 L 10.242188 16.40625 C 10.265625 16.273438 10.222656 16.140625 10.125 16.046875 L 8.5625 14.519531 L 10.722656 14.207031 C 10.855469 14.1875 10.96875 14.105469 11.03125 13.984375 L 11.996094 12.027344 L 12.960938 13.984375 C 13.023438 14.105469 13.136719 14.1875 13.269531 14.207031 L 15.429688 14.519531 Z M 13.867188 16.046875"/>
</svg>

<svg xmlns="http://www.w3.org/2000/svg" width="32" height="32" viewBox="0 0 24 24">
    <path d="M15.16 7.863L19.88 0h-5.02l-2.82 4.7L9.22 0H4.203l4.703 7.84c-3.09 1.234-5.285 4.254-5.285 7.781C3.621 20.242 7.38 24 12 24c4.621 0 8.379-3.758 8.379-8.379 0-3.504-2.16-6.508-5.219-7.758zm.16-7.05h3.121L14.375 7.59a7.615 7.615 0 0 0-.95-.219c-.132-.023-.269-.043-.402-.062-.097-.012-.191-.024-.285-.032a7.783 7.783 0 0 0-1.285-.015zm-9.68 0h3.118l2.808 4.68-1.14 1.902c-.23.043-.457.101-.68.164l-.05.011zM12 23.188c-4.172 0-7.566-3.395-7.566-7.567 0-3.344 2.18-6.18 5.191-7.18l.012-.004a6 6 0 0 1 .472-.132.848.848 0 0 1 .094-.028c.176-.039.356-.078.54-.109.218-.035.425-.063.624-.082A8.37 8.37 0 0 1 12 8.055c.23 0 .457.015.684.035.109.008.222.027.336.043.097.012.199.027.296.043a8.313 8.313 0 0 1 .582.129c.18.047.352.097.528.156l.023.008c2.973 1.02 5.117 3.836 5.117 7.152 0 4.172-3.394 7.566-7.566 7.566zm0 0"/>
    <path d="M12 9.063a6.565 6.565 0 0 0-6.559 6.558c0 3.613 2.942 6.555 6.559 6.555s6.559-2.942 6.559-6.555A6.565 6.565 0 0 0 12 9.062zm0 12.3a5.746 5.746 0 0 1-5.742-5.742A5.746 5.746 0 0 1 12 9.88a5.746 5.746 0 0 1 5.742 5.742A5.746 5.746 0 0 1 12 21.363zm0 0"/>
    <path d="M16.691 14.113a.4.4 0 0 0-.328-.277l-2.765-.402-1.235-2.508c-.14-.278-.593-.278-.73 0l-1.238 2.508-2.766.402a.406.406 0 0 0-.328.277.4.4 0 0 0 .105.414l2 1.953-.472 2.754a.398.398 0 0 0 .16.395.399.399 0 0 0 .43.031l2.472-1.297 2.473 1.297a.42.42 0 0 0 .191.047.408.408 0 0 0 .402-.473l-.472-2.754 2-1.953a.406.406 0 0 0 .101-.414zm-2.824 1.934a.398.398 0 0 0-.117.36l.367 2.152-1.933-1.016a.393.393 0 0 0-.375 0l-1.934 1.016.367-2.153a.398.398 0 0 0-.117-.36L8.562 14.52l2.16-.313a.414.414 0 0 0 .31-.223l.964-1.957.965 1.957a.414.414 0 0 0 .309.223l2.16.313zm0 0"/>
</svg>
